public/showcase/resources/images/home/unicredit.svg

<svg height="27" viewBox="0 0 116 27" width="116" xmlns="http://www.w3.org/2000/svg" xmlns:xlink="http://www.w3.org/1999/xlink"><mask id="a" fill="#fff"><path d="m.15294222 25.65h8.63190222v-25.44368625h-8.63190222z" fill="none"/></mask><mask id="b" fill="#fff"><path d="m.07344757 20.25h8.92164115v-19.89581099h-8.92164115z" fill="none"/></mask><mask id="c" fill="#fff"><path d="m16.6252893.17357143h-16.50093679v26.82635847h16.50093679z" fill="none"/></mask><mask id="d" fill="#fff"><path d="m.00010053 25.65h16.50891377v-25.44368625h-16.50891377z" fill="none"/></mask><g fill="#fff" fill-rule="evenodd" transform=""><path d="m5.87738667.20631375c-2.14666667 0-3.89666667 1.9089-3.89666667 4.2552v2.2831875h-1.82777778v3.61597505h1.82777778v10.7402625c0 2.9338875 1.67284444 4.5491625 4.71084444 4.5491625 1.10911112 0 1.91115556-.3526875 2.09346667-.4428v-3.725325c-.29244444.1103625-.76937778.2419875-1.08826667.2419875-1.21955555 0-1.59164444-.3722625-1.59164444-1.5933375v-9.76995h2.67991111v-3.61597505h-2.67991111v-6.5383875z" mask="url(#a)" transform="translate(106.977778)"/><path d="m93.7414493 23.9531511h-1.7624955c-2.6623161 0-3.9563285-2.0289722-3.9563285-6.2015841 0-3.0109634.735227-6.6010497 4.2378026-6.6010497.5549427 0 1.0362346.0683923 1.4810214.1905457zm4.0027605-22.6031511c-2.2239337 0-4.0341422 1.92927587-4.0341422 4.30054986v3.03648286c-.6817501-.18033795-1.4358702-.28411734-2.3264044-.28411734-4.6207867 0-7.6058854 3.76123732-7.6058854 9.58104932 0 5.7745575 2.8675776 8.9764069 8.0750089 9.0158771.2036605.0006805 5.2042292.0020415 6.1027689-.0643092v-25.5855326z"/><path d="m71.1345641 16.1178955c.0126115-3.3528829 1.18017-5.0173437 3.6546774-5.0946271 1.1668948-.0361106 3.6941713.1221685 3.8332296 4.0244719zm11.3543248.784308c0-5.6804957-2.7035055-8.8022035-7.5390168-8.8022035-4.9158266 0-7.9276499 3.5965448-7.9276499 9.3971841 0 5.9508187 3.2311969 9.5028159 8.6428542 9.5028159 2.9919104 0 5.0874093-.7245737 6.2177971-1.3408157v-3.7399746c-1.1220908.8180562-2.685252 1.8281395-5.77905 1.8281395-2.7941091 0-4.3280647-1.5048318-4.7017631-4.5742299l11.0868285-1.5476921z"/><path d="m.07344757 1.87120658v18.37882892h.23090206c2.31837695 0 4.19800658-2.0065263 4.19800658-4.4720526v-11.69881579c.91993251-.50021053 2.94291523-.87536843 4.49273251.28172368v-3.87734211c-4.43358683-.43697368-6.74828806.28492106-8.92164115 1.3876579" mask="url(#b)" transform="translate(58 6.75)"/><path d="m.12435251 13.5171117c0 6.6998571 3.72367581 13.4828182 10.84117299 13.4828182 2.3651616 0 4.3804279-.5438572 5.6597638-1.5561818v-4.5885975c-1.0368732 1.4937663-2.7686091 2.0895195-4.6702004 2.0895195-4.33147539 0-7.24201395-4.8943636-7.24201395-9.4650779 0-4.55528571 2.76926623-9.47174025 7.24201395-9.47174025 2.2659425 0 3.6858937.9705974 4.6702004 2.34409091v-4.62681818c-1.6249603-1.06457143-3.5488924-1.55162338-5.6216531-1.55162338-7.14246627 0-10.87928369 6.71283117-10.87928369 13.3436104" mask="url(#c)" transform="translate(39.955556)"/><path d="m.02157968.3542329v19.8958026h.25667302c2.55236825 0 4.62784762-2.0029737 4.62784762-4.4653026v-15.4305z" transform="translate(34.8 6.75)"/><path d="m34.8 3.39023019c0 1.10826559 1.156196 2.00976981 2.578135 2.00976981 1.4455129 0 2.5774206-.8827357 2.5774206-2.00976981 0-1.14395654-1.1319077-2.04023019-2.5774206-2.04023019-1.421939 0-2.578135.91504216-2.578135 2.04023019"/><path d="m16.2844899.20631375c-2.2536223 0-4.0870151 1.8468-4.0870151 4.1164875v14.10277505c0 2.3007375-1.9469956 3.5424-3.77938316 3.5424-1.87327111 0-3.81121866-1.325025-3.81121866-3.5424v-18.21926255h-.29891911c-2.37560267 0-4.30785334 1.9467-4.30785334 4.339575v13.91276255c0 4.09995 3.54882667 7.19145 8.254792 7.19145 4.70563027 0 8.25412177-3.0915 8.25412177-7.19145v-18.25233755z" mask="url(#d)"/><path d="m18.0444444 9.46983912v17.53016088h4.380516v-15.4806332c.7200079-.2760602 1.3653385-.4299519 2.4977235-.4299519 2.4114812 0 2.9177006 1.4953823 2.9177006 2.7494652l-.0033043 8.9429334c-.0003304 2.3239005 1.877836 4.2181865 4.1670579 4.2181865h.2180841v-13.226254c0-2.1190489-.9268573-5.673746-7.1376274-5.673746-2.7815632 0-5.1573579.47179973-7.0401504 1.36983912"/><path d="m.29909096.3542329v19.8958026h.23956148c2.38186667 0 4.32001186-2.0029737 4.32001186-4.4653026v-15.4305z" transform="translate(100.533333 6.75)"/><path d="m100.533333 3.39023019c0 1.10826559 1.156473 2.00976981 2.579028 2.00976981 1.445413 0 2.576528-.8827357 2.576528-2.00976981 0-1.14395654-1.131115-2.04023019-2.576528-2.04023019-1.422555 0-2.579028.91504216-2.579028 2.04023019"/></g></svg>

<svg xmlns="http://www.w3.org/2000/svg" xmlns:xlink="http://www.w3.org/1999/xlink" width="116" height="27" viewBox="0 0 116 27">
    <defs>
        <path id="a" d="M.153 25.65h8.632V.206H.153z"/>
        <path id="c" d="M.073 20.25h8.922V.354H.073V20.25z"/>
        <path id="e" d="M16.625.174H.125V27h16.5z"/>
        <path id="g" d="M0 25.65H16.51V.206H0V25.65z"/>
    </defs>
    <g fill="none" fill-rule="evenodd">
        <g transform="translate(106.978)">
            <mask id="b" fill="#fff">
                <use xlink:href="#a"/>
            </mask>
            <path fill="#FFF" d="M5.877.206c-2.146 0-3.896 1.91-3.896 4.256v2.283H.153v3.616H1.98V21.1c0 2.934 1.673 4.55 4.71 4.55 1.11 0 1.912-.354 2.094-.444v-3.725c-.292.11-.77.242-1.088.242-1.22 0-1.592-.372-1.592-1.593v-9.77h2.68V6.745h-2.68V.206h-.228z" mask="url(#b)"/>
        </g>
        <path fill="#FFF" d="M93.741 23.953H91.98c-2.662 0-3.956-2.029-3.956-6.201 0-3.011.735-6.601 4.237-6.601a5.51 5.51 0 0 1 1.481.19v12.612zM97.744 1.35c-2.224 0-4.034 1.93-4.034 4.3v3.037a8.968 8.968 0 0 0-2.326-.284c-4.621 0-7.606 3.761-7.606 9.581 0 5.775 2.867 8.976 8.075 9.016.203 0 5.204.002 6.103-.064V1.35h-.212zM71.135 16.118c.012-3.353 1.18-5.017 3.654-5.095 1.167-.036 3.694.122 3.833 4.025l-7.487 1.07zm11.354.784c0-5.68-2.704-8.802-7.54-8.802-4.915 0-7.927 3.597-7.927 9.397 0 5.951 3.231 9.503 8.643 9.503 2.992 0 5.087-.725 6.218-1.34v-3.74c-1.122.817-2.685 1.827-5.78 1.827-2.793 0-4.327-1.504-4.7-4.574l11.086-1.548v-.723z"/>
        <g transform="translate(58 6.75)">
            <mask id="d" fill="#fff">
                <use xlink:href="#c"/>
            </mask>
            <path fill="#FFF" d="M.073 1.871V20.25h.231c2.319 0 4.198-2.006 4.198-4.472V4.079c.92-.5 2.943-.875 4.493.282V.484C4.562.047 2.247.768.073 1.87" mask="url(#d)"/>
        </g>
        <g transform="translate(39.956)">
            <mask id="f" fill="#fff">
                <use xlink:href="#e"/>
            </mask>
            <path fill="#FFF" d="M.124 13.517C.124 20.217 3.848 27 10.966 27c2.365 0 4.38-.544 5.66-1.556v-4.589c-1.038 1.494-2.77 2.09-4.67 2.09-4.332 0-7.243-4.895-7.243-9.465 0-4.556 2.77-9.472 7.242-9.472 2.266 0 3.686.97 4.67 2.344V1.725C15 .661 13.076.174 11.004.174 3.86.174.124 6.886.124 13.517" mask="url(#f)"/>
        </g>
        <path fill="#FFF" d="M34.822 7.104V27h.256c2.553 0 4.628-2.003 4.628-4.465V7.105h-4.884zM34.8 3.39c0 1.108 1.156 2.01 2.578 2.01 1.446 0 2.578-.883 2.578-2.01 0-1.144-1.132-2.04-2.578-2.04-1.422 0-2.578.915-2.578 2.04"/>
        <g>
            <mask id="h" fill="#fff">
                <use xlink:href="#g"/>
            </mask>
            <path fill="#FFF" d="M16.284.206c-2.253 0-4.087 1.847-4.087 4.117v14.103c0 2.3-1.947 3.542-3.779 3.542-1.873 0-3.811-1.325-3.811-3.542V.206h-.299C1.932.206 0 2.153 0 4.546v13.913c0 4.1 3.549 7.191 8.255 7.191 4.706 0 8.254-3.091 8.254-7.191V.206h-.225z" mask="url(#h)"/>
        </g>
        <path fill="#FFF" d="M18.044 9.47V27h4.381V11.52c.72-.277 1.365-.43 2.498-.43 2.411 0 2.917 1.495 2.917 2.749l-.003 8.943c0 2.324 1.878 4.218 4.167 4.218h.218V13.774c0-2.12-.927-5.674-7.137-5.674-2.782 0-5.158.472-7.04 1.37M100.832 7.104V27h.24c2.382 0 4.32-2.003 4.32-4.465V7.105h-4.56zM100.533 3.39c0 1.108 1.157 2.01 2.58 2.01 1.445 0 2.576-.883 2.576-2.01 0-1.144-1.131-2.04-2.577-2.04-1.422 0-2.579.915-2.579 2.04"/>
    </g>
</svg>
